X: 755
T: A Trip to Bow fair, a Hornpipe
M:3/2
L:1/8
S: 8: MCJLSH3 http://www.cpartington.plus.com/links/Walsh.abc
Z: Pete Stewart 2004
B: Walsh "Third Book of the most Celebrated jiggs, Lancashire hornpipes, ..."
K:Gm
B,4CDEF GABc | d2B4FE D2B,2 | C4 DEFG ABcd | e2 c4GB A2F2 |
B,4CDEF GABc | d2B4FE D2B,2 | Bgfe dcBd cBAG | FEDC B,CDA, B,4 ||
f3e defe dcBA | B2F2_AcBA GEDE | g3f efgf edc=B | c2G2_BdcB AF=EF |
f3e defe dcBA | B2F2_AcBA GEDC | DFB2CEA2B,DGF | EDCB, A,B,CA, B,4 ||
Bdfb fdBd f_agf | g2e4cdA2F2 | BABc dcBA GFED | CB,CD EFGB,A,4 |
Bdfb fdBd f_agf | g2e4cda2f2 | GBAc Bdfb fdBG | AFGD ECDA,B,4 ||

%%sep 1 1 500
%%sep 1 1 500
